modules/feathericon/icons/shopping-bag.svg

<?xml version="1.0" encoding="UTF-8"?>
<svg width="8px" height="12px" viewBox="0 0 8 12" version="1.1" xmlns="http://www.w3.org/2000/svg" xmlns:xlink="http://www.w3.org/1999/xlink">
    <!-- Generator: sketchtool 48.1 (47250) - http://www.bohemiancoding.com/sketch -->
    <title>shopping-bag</title>
    <desc>Created with sketchtool.</desc>
    <defs></defs>
    <g id="e-commerce" stroke="none" stroke-width="1" fill="none" fill-rule="evenodd">
        <g id="shopping-bag" fill="#000000" fill-rule="nonzero">
            <path d="M2,2 L2,1 C2,0.44771525 2.44771525,-3.42634992e-16 3,0 L5,0 C5.55228475,-1.01454218e-16 6,0.44771525 6,1 L6,2 L7,2 C7.55228475,2 8,2.44771525 8,3 L8,11 C8,11.5522847 7.55228475,12 7,12 L1,12 C0.44771525,12 0,11.5522847 0,11 L0,3 C0,2.44771525 0.44771525,2 1,2 L2,2 Z M1,3 L1,11 L7,11 L7,3 L6,3 L6,4.5 C6,4.83333333 5.83333333,5 5.5,5 C5.16666667,5 5,4.83333333 5,4.5 L5,3 L3,3 L3,4 L3,4.5 C3,4.83524763 2.83333333,5.0019143 2.5,5 C2.16666667,4.9980857 2,4.83141903 2,4.5 L2,4 L2,3 L1,3 Z M3,1 L3,2 L5,2 L5,1 L3,1 Z" id="Shape"></path>
        </g>
    </g>
</svg>

<svg width="8" height="12" xmlns="http://www.w3.org/2000/svg"><path d="M2 2V1a1 1 0 0 1 1-1h2a1 1 0 0 1 1 1v1h1a1 1 0 0 1 1 1v8a1 1 0 0 1-1 1H1a1 1 0 0 1-1-1V3a1 1 0 0 1 1-1h1zM1 3v8h6V3H6v1.5c0 .333-.167.5-.5.5-.333 0-.5-.167-.5-.5V3H3v1.5c0 .335-.167.502-.5.5-.333-.002-.5-.169-.5-.5V3H1zm2-2v1h2V1H3z" fill="#000" fill-rule="nonzero"/></svg>
